X: 09008
T: BALMORAL PLACE
C: Bob McQuillen 26 Aug 92
B: Bob's Note Book 9 #8
%R: reel
Z: 2019 John Chambers <jc:trillian.mit.edu>
N: Initial repeat included, but not in the booklet. Delete it if you don't like it.
M: C
L: 1/8
K: G
|: G2GA BDGA | BAGB AGED | G2GA Bdge | dBGB AGED |
|  G2GA BDGA | BAGB d2BA | GBde gedB | edBG AGED :|
|: GBde g2ge | d2de gedB | GBde g2ge | d2dB AGED |
|  GBde g2ga | b2bg ageg | dBGB AGEG | DEGA BdBA :| "^fine*"B8 |]
%%text * AKA L.F.N.
%%begintext align
%% Edinburgh, Scotland is a wonderful
%% part of the world, perhaps especially so if the visitor from a
%% foreign land has a particular interest n traditional music.
%% Three of us went there in late summer '92, and Aly Bain treated us
%% like we were royalty. Thanks ever so much for your great hospitality,
%% Aly; we surely enjoyed being at Balmoral Place. Best
%% wishes always to you and the Boys -- we hope to see you soon.
%%endtext

%%sep 1 1 500

%%sep 1 1 500

